X: 26910
T: Miramichi Fire, The
R: reel
M: 4/4
K: Amixolydian
eg|"A"abag e2 ed|cAeA cdef|"G"gfge d2 ed|BGdG BAGB|
"A"abag e2 ed|cAeA cdef|"G"gfge dBGB|"A"cA A/A/A A2:|
|:AB|"A"caec A2 AB|cdec "G"dcBA|"A"cdec A2 Ac|"G"BG G/G/G B2 AB|
"A"caec A2 AB|cdec "G"dcBA|"A"cdec "G"dBGB|"A"cA A/A/A A2:|

